dist/img/new.svg

<svg height="21" viewBox="0 0 38 21" width="38" xmlns="http://www.w3.org/2000/svg"><g fill="none" fill-rule="evenodd"><rect fill="#2638c4" height="19.944294" rx="4" width="37.748721" x=".001191" y=".58213"/><g fill="#fff" fill-rule="nonzero" transform="translate(4.632936 5.213875)"><path d="m8.35885214 10.5372197h-1.83098666l-4.69687882-7.4759258v7.4759258h-1.83098666v-10.5372197h1.83098666l4.71135302 7.50487417v-7.50487417h1.81651246z"/><path d="m13.9721707 10.6819617c-1.1145136 0-2.0179451-.3509994-2.7102945-1.05299826-.6923494-.70199884-1.0385241-1.6367911-1.0385241-2.8043768v-.21711304c0-.78160696.150773-1.47998724.4523189-2.09514086s.7249163-1.0940085 1.2701113-1.43656464c.545195-.34255613 1.1531115-.5138342 1.8237495-.5138342 1.0662663 0 1.8900897.34014377 2.4714702 1.0204313.5813805.68028754.8720707 1.64282203.8720707 2.88760347v.70923594h-5.1166307c.0530721.64651439.2689789 1.15793623.6477206 1.5342655.3787416.37632927.8551841.56449391 1.4293275.56449391.8057306 0 1.4618945-.32566956 1.9684916-.97700869l.9480603.90463768c-.3136078.46799922-.7321535.83106049-1.2556371 1.08918379-.5234837.2581233-1.1108951.3871849-1.7622342.3871849zm-.209876-6.70879302c-.4824734 0-.8720707.1688657-1.1687918.5065971-.2967212.3377314-.486092.80814299-.5681125 1.41123478h3.350778v-.13026783c-.0385979-.58861758-.1954018-1.03369932-.4704116-1.33524521-.2750099-.30154589-.6561639-.45231884-1.1434621-.45231884z"/><path d="m25.5271495 8.11279069 1.2447814-5.40611476h1.7151931l-2.1349449 7.83054377h-1.4474203l-1.6790076-5.37716639-1.6500591 5.37716639h-1.4474203l-2.142182-7.83054377h1.715193l1.2664928 5.34821795 1.6066365-5.34821795h1.3243896z"/></g></g></svg>

<?xml version="1.0" encoding="UTF-8"?>
<svg width="38px" height="21px" viewBox="0 0 38 21" version="1.1" xmlns="http://www.w3.org/2000/svg" xmlns:xlink="http://www.w3.org/1999/xlink">
    <title>new</title>
    <g id="M3" stroke="none" stroke-width="1" fill="none" fill-rule="evenodd">
        <g id="Passport_Tablet_M3" transform="translate(-382.000000, -1788.000000)">
            <g id="s3-table" transform="translate(47.000000, 1406.000000)">
                <g id="tbody" transform="translate(1.852698, 142.657743)">
                    <g id="td-6" transform="translate(0.000000, 226.955501)">
                        <g id="new" transform="translate(333.148493, 12.968886)">
                            <rect id="Rectangle" fill="#2638C4" x="0" y="0" width="37.748721" height="19.9442936" rx="4"></rect>
                            <g id="New" transform="translate(4.631745, 4.631745)" fill="#FFFFFF" fill-rule="nonzero">
                                <polygon id="Path" points="8.35885214 10.5372197 6.52786548 10.5372197 1.83098666 3.0612939 1.83098666 10.5372197 0 10.5372197 0 0 1.83098666 0 6.54233968 7.50487417 6.54233968 0 8.35885214 0"></polygon>
                                <path d="M13.9721707,10.6819617 C12.8576571,10.6819617 11.9542256,10.3309623 11.2618762,9.62896344 C10.5695268,8.9269646 10.2233521,7.99217234 10.2233521,6.82458664 L10.2233521,6.6074736 C10.2233521,5.82586664 10.3741251,5.12748636 10.675671,4.51233274 C10.9772169,3.89717912 11.4005873,3.41832424 11.9457823,3.0757681 C12.4909773,2.73321197 13.0988938,2.5619339 13.7695318,2.5619339 C14.8357981,2.5619339 15.6596215,2.90207767 16.241002,3.5823652 C16.8223825,4.26265274 17.1130727,5.22518723 17.1130727,6.46996867 L17.1130727,7.17920461 L11.996442,7.17920461 C12.0495141,7.825719 12.2654209,8.33714084 12.6441626,8.71347011 C13.0229042,9.08979938 13.4993467,9.27796402 14.0734901,9.27796402 C14.8792207,9.27796402 15.5353846,8.95229446 16.0419817,8.30095533 L16.990042,9.20559301 C16.6764342,9.67359223 16.2578885,10.0366535 15.7344049,10.2947768 C15.2109212,10.5529001 14.6235098,10.6819617 13.9721707,10.6819617 Z M13.7622947,3.97316868 C13.2798213,3.97316868 12.890224,4.14203438 12.5935029,4.47976578 C12.2967817,4.81749718 12.1074109,5.28790877 12.0253904,5.89100056 L15.3761684,5.89100056 L15.3761684,5.76073273 C15.3375705,5.17211515 15.1807666,4.72703341 14.9057568,4.42548752 C14.6307469,4.12394163 14.2495929,3.97316868 13.7622947,3.97316868 Z" id="Shape"></path>
                                <polygon id="Path" points="25.5271495 8.11279069 26.7719309 2.70667593 28.487124 2.70667593 26.3521791 10.5372197 24.9047588 10.5372197 23.2257512 5.16005331 21.5756921 10.5372197 20.1282718 10.5372197 17.9860898 2.70667593 19.7012828 2.70667593 20.9677756 8.05489388 22.5744121 2.70667593 23.8988017 2.70667593"></polygon>
                            </g>
                        </g>
                    </g>
                </g>
            </g>
        </g>
    </g>
</svg>
